img/vk__ico.svg

<svg width="31" height="31" viewBox="0 0 31 31" fill="none" xmlns="http://www.w3.org/2000/svg">
<path d="M0 14.9C0 8.11178 1.49012e-07 4.71766 2.10883 2.60883C4.21766 0.5 7.61178 0.5 14.4 0.5H15.6C22.3882 0.5 25.7823 0.5 27.8912 2.60883C30 4.71766 30 8.11178 30 14.9V16.1C30 22.8882 30 26.2823 27.8912 28.3912C25.7823 30.5 22.3882 30.5 15.6 30.5H14.4C7.61178 30.5 4.21766 30.5 2.10883 28.3912C1.49012e-07 26.2823 0 22.8882 0 16.1V14.9Z" fill="#EFF2F5"/>
<path d="M16.0158 22.1875C9.2596 22.1875 5.1606 17.4913 5 9.6875H8.42182C8.52849 15.42 11.1317 17.8491 13.1273 18.3486V9.6875H16.4065V14.6347C18.3313 14.4209 20.3461 12.1707 21.0233 9.6875H24.2509C23.7343 12.7411 21.541 14.9913 19.9913 15.9195C21.5422 16.67 24.0376 18.6344 25 22.1875H21.4523C20.7032 19.8124 18.8683 17.9728 16.4077 17.723V22.1875H16.0158Z" fill="#080808"/>
</svg>

<svg xmlns="http://www.w3.org/2000/svg" width="31" height="31" fill="none"><path fill="#EFF2F5" d="M0 14.9C0 8.112 0 4.718 2.109 2.609S7.612.5 14.4.5h1.2c6.788 0 10.182 0 12.291 2.109S30 8.112 30 14.9v1.2c0 6.788 0 10.182-2.109 12.291S22.388 30.5 15.6 30.5h-1.2c-6.788 0-10.182 0-12.291-2.109S0 22.888 0 16.1v-1.2Z"/><path fill="#080808" d="M16.016 22.188C9.26 22.188 5.16 17.49 5 9.688h3.422c.106 5.732 2.71 8.161 4.705 8.66v-8.66h3.28v4.947c1.924-.214 3.94-2.464 4.616-4.947h3.228c-.517 3.053-2.71 5.303-4.26 6.231 1.551.751 4.047 2.715 5.009 6.268h-3.548c-.749-2.375-2.584-4.214-5.044-4.464v4.465h-.392Z"/></svg>
